!!!OTL: ICH GING WOHL BEI DER NACHT
!!!ARE: Europa, Mitteleuropa, Deutschland, Gransee, Roennebeck
!!!SCT: E0157A
!!!YEM: Copyright 1995, estate of Helmut Schaffrath.
**kern
*ICvox
*Ivox
*M6/8
*k[f#c#g#]
*A:
{8e
=1
4a
8a
4g#
8b
=2
4ee
4.r}
{8b
=3
4ccn
8dd
4ee
8ccn
=4
4b
8dd
4dd}
{8b
=5
4ccn
8dd
4ee
8ccn
=6
4b
4.r}
{8b
=7
4ccn
8b
4ccn
8dd
=8
4.ee
4.b}
=9
{4ccn
8b
4a
8ccn
=10
4b
8gn
4e}
{8e
=11
4ccn
8b
4a
16ccn
16ccn
=12
4b
8gn
4e}
{8b
=13
8ccn
8b
8a
8b
8a
8g#
=14
4a
4.r}
==
!!!AGN: erzaehlendes Volks - Lied, Scherz, Schwank, Ballade ?
!!!ONB: ESAC (Essen Associative Code) Database: ERK1
!!!AMT: compound duple
!!!AIN: vox
!!!EED: Helmut Schaffrath
!!!EEV: 1.0
*-
